!!!OTL: Gan niu
!!!ARE: Asia, China,ÿHenan, Lushi
!! IV, 169
!!!SCT: C1670
!!!YEM: Copyright 1995, estate of Helmut Schaffrath.
**kern
*ICvox
*Ivox
*M2/4
*k[f#]
*G:
{4b
8b
8a
=1
4b
8b
8a
=2
4b
8b
8a
=3
8g
8g
8e
8g}
=4
{4d
8d
8g
=5
4d
4g
=6
4g
8g
8a
=7
8g
8a
8b
16dd
16b
=8
[2a
=9
4a]
[4b
=10
4b]
4a}
=11
{8a
8dd
[4a
=12
4a]
4b
=13
[2dd
=14
2dd]}
=15
{8dd
8ee
[4dd
=16
4dd]
[4b
=17
4b]
16a
16dd
8r}
=18
{4b
4ee
=19
2dd
=20
4.b
8a
=21
8g
4g
8a
=22
2dd
=23
4.b
8a
=24
2g}
==
!!!AGN: Wuge, Caicha
!!!AMT: simple duple
!!!AIN: vox
!!!EED: Helmut Schaffrath
!!!EEV: 1.0
*-
!!!ONB: Tied note syntax fixed by Craig Sapp, 2004/05/03/
